X:25
T:arpeggios_dom7_c
C:Beringer and Dunhill

%%score { ( 1 ) | ( 2 ) }
M:4/4
K:Cmaj
V:1 treble

V:2 bass octave=-1

V:1

L:1/16
G,B,DF GBdf gfdB GFDB,:|G,4|:B,DFG Bdfg bgfd BGFD:|B,4|
|:DFGB dfgb d'bgf dBGF:|D4|:FGBd fgbd' f'd'bg fdBG:|F4||
V:2

L:1/16

G,B,DF GBdf gfdB GFDB,:|G,4|:B,DFG [K: clef=treble octave=-1]Bdfg bgfd [K: clef=bass octave=-1]BGFD:|B,4|

|:DFGB [K: clef=treble octave=-1]dfgb d'bgf [K: clef=bass octave=-1]dBGF:|D4|:FGBd [K: clef=treble octave=-1]fgbd' f'd'bg [K: clef=bass octave=-1]fdBG:|F4||


